public/img/logo.svg

<svg width="520" height="134" viewBox="0 0 520 134" fill="none" xmlns="http://www.w3.org/2000/svg">
<path d="M171.989 71.881C171.989 74.4528 172.957 76.3816 175.054 77.989C177.152 79.4356 180.056 80.2393 183.928 80.2393C186.025 80.2393 187.8 80.0785 189.252 79.7571C190.704 79.4356 191.834 78.9534 192.802 78.4712C193.77 77.8282 194.415 77.1853 194.738 76.3816C195.222 75.5779 195.383 74.6135 195.383 73.6491C195.383 72.2025 195.06 70.9166 194.415 70.1129C193.77 69.3092 192.802 68.5055 191.511 67.8626C190.22 67.2196 188.607 66.7374 186.832 66.2552C185.057 65.773 182.96 65.1301 180.54 64.4871C179.41 64.1656 178.12 63.8442 176.668 63.5227C175.216 63.2012 173.764 62.719 172.15 62.2368C170.698 61.7546 169.246 61.1117 167.794 60.308C166.342 59.5043 165.051 58.5399 163.922 57.5755C162.792 56.4503 161.824 55.1644 161.179 53.5571C160.534 52.1104 160.211 50.3423 160.211 48.2528C160.211 45.1988 160.695 42.4663 161.663 40.0552C162.631 37.6442 164.244 35.5546 166.181 33.7865C168.278 32.0184 170.859 30.7325 174.086 29.9288C177.313 29.1252 181.024 28.6429 185.38 28.6429C188.93 28.6429 192.156 29.1252 194.899 30.0896C197.642 31.054 200.062 32.3399 201.998 33.9472C203.934 35.5546 205.386 37.6442 206.354 40.0552C207.322 42.4663 207.806 45.038 207.806 48.092H193.447C193.447 47.1276 193.286 46.3239 192.963 45.5202C192.64 44.7166 192.156 43.9129 191.35 43.2699C190.543 42.627 189.575 42.1448 188.446 41.6626C187.316 41.3411 185.864 41.0196 184.089 41.0196C182.153 41.0196 180.54 41.1804 179.249 41.5018C177.958 41.8233 176.99 42.3055 176.345 42.7877C175.7 43.4307 175.054 44.0736 174.893 44.7166C174.57 45.3595 174.409 46.1632 174.409 46.9669C174.409 48.092 174.732 48.8957 175.377 49.6994C176.022 50.5031 176.99 51.146 178.12 51.6282C179.249 52.1104 180.701 52.5926 182.315 53.0748C183.928 53.3963 185.703 53.8785 187.477 54.2C189.575 54.6822 191.672 55.3252 193.608 55.8074C195.545 56.4503 197.319 57.0933 198.933 57.7362C200.546 58.5399 202.159 59.3436 203.45 60.308C204.741 61.2724 205.87 62.3975 206.838 63.6834C207.806 64.9693 208.452 66.416 209.097 68.1841C209.581 69.7914 209.904 71.7202 209.904 73.9706C209.904 77.0245 209.258 79.7571 207.968 82.1681C206.677 84.5791 204.902 86.508 202.482 88.1153C200.223 89.7227 197.319 90.8479 194.092 91.8123C190.866 92.616 187.478 93.0982 183.605 93.0982C178.926 93.0982 174.893 92.4552 171.666 91.3301C168.439 90.0442 165.697 88.5975 163.599 86.508C161.502 84.5791 160.05 82.3288 159.082 79.9178C158.114 77.5067 157.63 74.935 157.63 72.5239H171.989V71.881Z" fill="#2B2830"/>
<path d="M213.292 67.5411C213.292 64.1656 213.937 60.9509 215.067 57.8969C216.196 54.8429 217.971 52.2712 220.068 50.0208C222.166 47.7705 224.908 46.0024 227.974 44.7166C231.039 43.4307 234.589 42.7877 238.461 42.7877C241.527 42.7877 244.431 43.2699 246.851 44.2343C249.271 45.1988 251.368 46.4847 253.143 47.7705L253.788 44.2343H265.728V90.8478H253.788L253.143 87.3116C251.368 88.7583 249.271 89.8834 246.851 90.8478C244.431 91.8123 241.688 92.2945 238.622 92.2945C234.75 92.2945 231.362 91.6515 228.297 90.3656C225.231 89.0797 222.488 87.3116 220.391 85.0613C218.294 82.811 216.519 80.2393 215.389 77.1853C213.937 74.1313 213.292 70.9166 213.292 67.5411ZM227.329 67.5411C227.329 69.4699 227.651 71.238 228.297 72.8454C228.942 74.4527 229.91 75.7386 231.039 76.8638C232.169 77.9889 233.46 78.9534 235.073 79.4356C236.525 80.0785 238.138 80.4 239.913 80.4C241.688 80.4 243.301 80.0785 244.753 79.4356C246.205 78.7926 247.657 77.9889 248.787 76.8638C249.916 75.7386 250.884 74.4527 251.53 72.8454C252.175 71.238 252.498 69.4699 252.498 67.5411C252.498 65.6123 252.175 63.8442 251.53 62.2368C250.884 60.6294 249.916 59.3435 248.787 58.2184C247.657 57.0932 246.367 56.2896 244.753 55.6466C243.301 55.0037 241.688 54.6822 239.913 54.6822C238.138 54.6822 236.525 55.0037 235.073 55.6466C233.621 56.2896 232.169 57.0932 231.039 58.2184C229.91 59.3435 229.103 60.6294 228.458 62.2368C227.651 63.8442 227.329 65.6123 227.329 67.5411Z" fill="#2B2830"/>
<path d="M323.165 90.8478H309.128V66.0944C309.128 64.0049 308.967 62.076 308.483 60.6294C307.999 59.1828 307.353 58.0576 306.547 57.0932C305.74 56.1288 304.772 55.6466 303.643 55.1644C302.513 54.8429 301.222 54.5214 299.932 54.5214C298.157 54.5214 296.705 54.8429 295.253 55.4859C293.801 56.1288 292.671 57.0932 291.703 58.2184C290.735 59.3435 289.929 60.6294 289.445 62.2368C288.961 63.8441 288.638 65.4515 288.638 67.3803V90.8478H274.601V44.2343H285.895L286.702 47.7705C287.67 47.1276 288.799 46.4846 289.929 45.8417C291.058 45.1987 292.349 44.7165 293.639 44.2343C294.93 43.7521 296.221 43.4306 297.673 43.1092C298.964 42.7877 300.416 42.627 301.868 42.627C305.579 42.627 308.805 43.1092 311.548 44.2343C314.291 45.3595 316.388 46.8061 318.163 48.8957C319.938 50.9852 321.067 53.2355 322.035 56.1288C323.003 59.022 323.326 62.2368 323.326 65.773V90.8478H323.165Z" fill="#2B2830"/>
<path d="M327.844 67.5411C327.844 64.1656 328.489 60.9509 329.618 57.8969C330.748 54.8429 332.522 52.2712 334.62 50.0208C336.717 47.7705 339.46 46.0024 342.526 44.7166C345.591 43.4307 349.141 42.7877 353.013 42.7877C356.078 42.7877 358.982 43.2699 361.402 44.2343C363.823 45.1988 365.92 46.4847 367.695 47.7705L368.34 44.2343H380.279V90.8478H368.34L367.695 87.3116C365.92 88.7583 363.823 89.8834 361.402 90.8478C358.982 91.8123 356.24 92.2945 353.174 92.2945C349.302 92.2945 345.914 91.6515 342.848 90.3656C339.783 89.0797 337.04 87.3116 334.943 85.0613C332.684 82.811 331.07 80.2393 329.941 77.1853C328.489 74.1313 327.844 70.9166 327.844 67.5411ZM341.88 67.5411C341.88 69.4699 342.203 71.238 342.848 72.8454C343.494 74.4527 344.462 75.7386 345.591 76.8638C346.72 77.9889 348.011 78.9534 349.625 79.4356C351.077 80.0785 352.69 80.4 354.465 80.4C356.24 80.4 357.853 80.0785 359.305 79.4356C360.757 78.7926 362.209 77.9889 363.339 76.8638C364.468 75.7386 365.436 74.4527 366.081 72.8454C366.727 71.238 367.049 69.4699 367.049 67.5411C367.049 65.6123 366.727 63.8442 366.081 62.2368C365.436 60.6294 364.468 59.3435 363.339 58.2184C362.209 57.0932 360.918 56.2896 359.305 55.6466C357.853 55.0037 356.24 54.6822 354.465 54.6822C352.69 54.6822 351.077 55.0037 349.625 55.6466C348.173 56.2896 346.72 57.0932 345.591 58.2184C344.462 59.3435 343.655 60.6294 343.01 62.2368C342.203 63.8442 341.88 65.6123 341.88 67.5411Z" fill="#2B2830"/>
<path d="M441.589 67.5411C441.589 70.9165 440.943 74.1312 439.814 77.1852C438.684 80.2392 437.071 82.811 434.812 85.0613C432.715 87.3116 430.133 89.0797 427.068 90.3656C424.003 91.6515 420.453 92.2944 416.742 92.2944C413.838 92.2944 411.418 91.973 409.159 91.1693C406.9 90.3656 404.964 89.4012 403.351 88.1153V106.761H389.314V44.0736H400.608L401.576 48.092C402.383 47.449 403.351 46.6454 404.48 46.0024C405.61 45.3595 406.739 44.7165 408.03 44.2343C409.321 43.7521 410.611 43.2699 412.063 43.1092C413.515 42.7877 414.967 42.627 416.581 42.627C420.453 42.627 423.841 43.2699 426.907 44.5558C429.972 45.8417 432.554 47.6098 434.812 49.8601C437.071 52.1104 438.684 54.6822 439.814 57.7362C440.943 60.9509 441.589 64.1656 441.589 67.5411ZM427.552 67.5411C427.552 65.6122 427.229 63.8441 426.584 62.2368C425.939 60.6294 424.971 59.3435 423.841 58.2184C422.712 57.0932 421.421 56.1288 419.808 55.6466C418.356 55.0036 416.742 54.6822 414.967 54.6822C413.193 54.6822 411.579 55.0036 410.127 55.6466C408.675 56.2895 407.384 57.0932 406.255 58.2184C405.126 59.3435 404.158 60.6294 403.512 62.2368C402.867 63.8441 402.544 65.6122 402.544 67.5411C402.544 69.4699 402.867 71.238 403.512 72.8454C404.158 74.4527 405.126 75.7386 406.255 76.8638C407.384 77.9889 408.675 78.7926 410.289 79.4355C411.741 80.0785 413.354 80.4 415.129 80.4C416.903 80.4 418.517 80.0785 419.969 79.4355C421.421 78.7926 422.873 77.9889 423.841 76.8638C424.971 75.7386 425.777 74.4527 426.423 72.8454C427.229 71.238 427.552 69.4699 427.552 67.5411Z" fill="#2B2830"/>
<path d="M499.994 67.5411C499.994 70.9165 499.348 74.1312 498.219 77.1852C497.09 80.2392 495.476 82.811 493.218 85.0613C491.12 87.3116 488.539 89.0797 485.473 90.3656C482.408 91.6515 478.858 92.2944 475.147 92.2944C472.243 92.2944 469.823 91.973 467.564 91.1693C465.306 90.3656 463.37 89.4012 461.756 88.1153V106.761H447.72V44.0736H459.013L459.981 48.092C460.788 47.449 461.756 46.6454 462.885 46.0024C464.015 45.3595 465.144 44.7165 466.435 44.2343C467.726 43.7521 469.016 43.2699 470.469 43.1092C471.921 42.7877 473.373 42.627 474.986 42.627C478.858 42.627 482.246 43.2699 485.312 44.5558C488.377 45.8417 490.959 47.6098 493.218 49.8601C495.476 52.1104 497.09 54.6822 498.219 57.7362C499.348 60.9509 499.994 64.1656 499.994 67.5411ZM485.957 67.5411C485.957 65.6122 485.635 63.8441 484.989 62.2368C484.344 60.6294 483.376 59.3435 482.246 58.2184C481.117 57.0932 479.826 56.1288 478.213 55.6466C476.761 55.0036 475.147 54.6822 473.373 54.6822C471.598 54.6822 469.984 55.0036 468.532 55.6466C467.08 56.2895 465.79 57.0932 464.66 58.2184C463.531 59.3435 462.563 60.6294 461.917 62.2368C461.272 63.8441 460.949 65.6122 460.949 67.5411C460.949 69.4699 461.272 71.238 461.917 72.8454C462.563 74.4527 463.531 75.7386 464.66 76.8638C465.79 77.9889 467.08 78.7926 468.694 79.4355C470.146 80.0785 471.759 80.4 473.534 80.4C475.309 80.4 476.922 80.0785 478.374 79.4355C479.826 78.7926 481.278 77.9889 482.246 76.8638C483.376 75.7386 484.182 74.4527 484.828 72.8454C485.634 71.238 485.957 69.4699 485.957 67.5411Z" fill="#2B2830"/>
<path d="M507.899 28.9644H504.35V37.9656H503.382V28.9644H499.832V28H507.738V28.9644H507.899Z" fill="#2B2830"/>
<path d="M520 28.1608V37.9657H519.032V30.0896L515.16 36.6798H514.676L510.804 30.0896V37.9657H509.836V28.1608H510.642L514.998 35.3939L519.193 28.1608H520V28.1608Z" fill="#2B2830"/>
<g clip-path="url(#clip0)">
<path d="M130 57.571H129.996C129.992 57.5398 129.989 57.5046 129.985 57.4733C129.992 57.5055 129.997 57.5381 130 57.571V57.571Z" fill="#FC5656"/>
<path d="M129.985 57.4733C129.989 57.5046 129.992 57.5398 129.996 57.571H130C129.997 57.5381 129.992 57.5055 129.985 57.4733V57.4733Z" fill="#FC5656"/>
<path d="M1.85208 48.1418C1.85183 48.1446 1.85058 48.1472 1.84857 48.1491V48.1418H1.85208Z" fill="#FC5656"/>
<path d="M64.9106 28.7015C-5.43462 56.0861 13.3815 26.3022 16.8854 21.3083C16.8854 21.3043 16.8931 21.3005 16.8931 21.3005C23.0356 14.5694 30.4703 9.20391 38.7333 5.53907C46.9963 1.87422 55.9101 -0.0113508 64.9182 5.14048e-05V28.7015" fill="#032562"/>
<path d="M129.985 57.4732C129.989 57.5045 129.992 57.5397 129.996 57.5709H130C129.997 57.538 129.992 57.5054 129.985 57.4732V57.4732ZM1.84857 48.1418V48.1497C1.85071 48.1476 1.85204 48.1448 1.8523 48.1418H1.84857Z" fill="#FC5656"/>
<path d="M129.725 55.7774C128.072 47.501 121.355 44.246 112.825 43.7145H112.821C109.385 43.5393 105.941 43.6858 102.531 44.1522C84.7289 46.4108 64.8762 55.2615 64.8762 55.2615C48.5999 61.7482 36.4129 65.1048 27.309 66.3787C24.6166 66.7753 21.9007 66.9829 19.1805 67C14.2918 67 10.6848 66.1911 8.0376 64.9094C-0.852035 60.6032 1.09119 50.9592 1.70699 48.6459C1.76434 48.431 1.81028 48.2786 1.83326 48.2004C1.83924 48.1838 1.84436 48.1669 1.84857 48.1497C1.85071 48.1476 1.85204 48.1448 1.85231 48.1418H1.84857C4.74666 38.123 9.89575 28.9344 16.8854 21.3082C13.3815 26.3022 -5.43461 56.086 64.9105 28.7015C64.9105 28.7015 105.221 11.6213 114.971 23.6176L114.978 23.6215C122.639 32.7881 127.733 43.8978 129.725 55.7774Z" fill="#6559D3"/>
<path d="M127.988 85.8576C127.988 85.8548 127.989 85.8522 127.991 85.8503V85.8576H127.988Z" fill="#FC5656"/>
<path d="M64.922 134C73.9301 134.011 82.8439 132.126 91.1068 128.461C99.3698 124.796 106.805 119.431 112.947 112.7C112.947 112.7 112.955 112.696 112.955 112.692C116.459 107.698 135.275 77.914 64.9296 105.299L64.922 134Z" fill="#032562"/>
<path d="M127.988 85.8576H127.992V85.8503C127.989 85.8522 127.988 85.8548 127.988 85.8576Z" fill="#FC5656"/>
<path d="M128.133 85.3541C128.076 85.569 128.03 85.7214 128.007 85.7995C128.001 85.8162 127.996 85.8331 127.992 85.8503C127.99 85.8523 127.988 85.8551 127.988 85.8582H127.992C125.094 95.877 119.945 105.066 112.955 112.692C116.459 107.698 135.275 77.9139 64.9298 105.299C64.9298 105.299 24.6198 122.379 14.8695 110.382L14.8618 110.378C7.20165 101.212 2.1069 90.1022 0.115646 78.2227C1.76825 86.499 8.48903 89.754 17.0193 90.2855C20.4551 90.4605 23.8994 90.3141 27.309 89.8478C45.1115 87.5892 64.9642 78.7385 64.9642 78.7385C81.2403 72.2518 93.4274 68.8913 102.531 67.6174C105.224 67.2239 107.94 67.0176 110.66 67C115.549 67 119.156 67.8089 121.803 69.0906C130.692 73.3967 128.749 83.0408 128.133 85.3541Z" fill="#6559D3"/>
<path d="M121.803 69.0906C119.156 67.8089 115.549 67.0001 110.66 67.0001C107.94 67.0177 105.224 67.2239 102.531 67.6175C93.4274 68.8913 81.2402 72.2519 64.9642 78.7386C64.9642 78.7386 45.1115 87.5893 27.309 89.8479C23.8994 90.3141 20.4551 90.4606 17.0193 90.2856C8.48903 89.7541 1.76824 86.4991 0.115645 78.2227C0.115645 78.2227 -1.58272 70.8999 8.03759 64.9094C10.6848 66.1912 14.2918 67.0001 19.1805 67.0001C21.9007 66.983 24.6166 66.7754 27.309 66.3787C36.4129 65.1048 48.5999 61.7482 64.8762 55.2616C64.8762 55.2616 84.7289 46.4108 102.531 44.1522C105.941 43.6859 109.385 43.5393 112.821 43.7145H112.825C121.355 44.246 128.072 47.501 129.725 55.7774C129.724 55.7774 131.423 63.1003 121.803 69.0906Z" fill="#032562"/>
</g>
<defs>
<clipPath id="clip0">
<rect width="130" height="134" fill="white"/>
</clipPath>
</defs>
</svg>

<svg id="Layer_1" data-name="Layer 1" xmlns="http://www.w3.org/2000/svg" viewBox="0 0 520 134"><defs><style>.cls-1{fill:#f8f9fa;}.cls-2{fill:#fc5656;}.cls-3{fill:#ccc;}</style></defs><path class="cls-1" d="M172,71.88A7.2,7.2,0,0,0,175.05,78c2.1,1.45,5,2.25,8.88,2.25a25.17,25.17,0,0,0,5.32-.48,15.1,15.1,0,0,0,3.55-1.29,4.72,4.72,0,0,0,1.94-2.09,5.3,5.3,0,0,0,.64-2.73,5.75,5.75,0,0,0-1-3.54,8.72,8.72,0,0,0-2.9-2.25,26.27,26.27,0,0,0-4.68-1.6c-1.77-.49-3.87-1.13-6.29-1.77-1.13-.32-2.42-.65-3.87-1s-2.91-.8-4.52-1.28a27.16,27.16,0,0,1-4.36-1.93,24.39,24.39,0,0,1-3.87-2.73,11.9,11.9,0,0,1-2.74-4,13,13,0,0,1-1-5.31,22,22,0,0,1,1.45-8.19,17.2,17.2,0,0,1,4.52-6.27,19.1,19.1,0,0,1,7.91-3.86,46.53,46.53,0,0,1,11.29-1.29,29,29,0,0,1,9.52,1.45A23,23,0,0,1,202,34a15.05,15.05,0,0,1,4.35,6.11,20.94,20.94,0,0,1,1.46,8H193.45a6.5,6.5,0,0,0-.49-2.57,5.27,5.27,0,0,0-1.61-2.25,12.66,12.66,0,0,0-2.9-1.61,15.73,15.73,0,0,0-4.36-.64,20.5,20.5,0,0,0-4.84.48,8.13,8.13,0,0,0-2.9,1.29,5,5,0,0,0-1.46,1.93,5.12,5.12,0,0,0-.48,2.25,4,4,0,0,0,1,2.73,7,7,0,0,0,2.74,1.93,41.13,41.13,0,0,0,4.2,1.44c1.61.33,3.38.81,5.16,1.13,2.09.48,4.19,1.13,6.13,1.61,1.93.64,3.71,1.28,5.32,1.93a29,29,0,0,1,4.52,2.57,15.26,15.26,0,0,1,5.65,7.87,20.22,20.22,0,0,1,.8,5.79,17.12,17.12,0,0,1-1.93,8.2,16.17,16.17,0,0,1-5.49,6,28.79,28.79,0,0,1-8.39,3.69A42.2,42.2,0,0,1,183.6,93.1a36.47,36.47,0,0,1-11.93-1.77,23.45,23.45,0,0,1-8.07-4.82,17.91,17.91,0,0,1-4.52-6.59,20.08,20.08,0,0,1-1.45-7.4H172Z"/><path class="cls-1" d="M213.29,67.54a27.61,27.61,0,0,1,1.78-9.64,23.4,23.4,0,0,1,5-7.88,22.75,22.75,0,0,1,7.9-5.3,27.05,27.05,0,0,1,10.49-1.93,23,23,0,0,1,8.39,1.44,29.11,29.11,0,0,1,6.29,3.54l.65-3.54h11.94V90.85H253.79l-.65-3.54a23.67,23.67,0,0,1-6.29,3.54,22.16,22.16,0,0,1-8.23,1.44,26.34,26.34,0,0,1-10.32-1.92,22.86,22.86,0,0,1-7.91-5.31,23.46,23.46,0,0,1-5-7.87A22.17,22.17,0,0,1,213.29,67.54Zm14,0a14.06,14.06,0,0,0,1,5.31,11.76,11.76,0,0,0,2.74,4,9.72,9.72,0,0,0,4,2.58,12.68,12.68,0,0,0,9.68,0,13.27,13.27,0,0,0,4-2.58,11.91,11.91,0,0,0,2.74-4,15,15,0,0,0,0-10.61,11.85,11.85,0,0,0-2.74-4,11.42,11.42,0,0,0-4-2.57,12.56,12.56,0,0,0-9.68,0,13.12,13.12,0,0,0-4,2.57,11.35,11.35,0,0,0-2.58,4A11.53,11.53,0,0,0,227.33,67.54Z"/><path class="cls-1" d="M323.17,90.85h-14V66.09a17.92,17.92,0,0,0-.65-5.46,10.68,10.68,0,0,0-1.93-3.54,7.26,7.26,0,0,0-2.91-1.93,13.85,13.85,0,0,0-3.71-.64,11,11,0,0,0-4.68,1,9.94,9.94,0,0,0-3.55,2.73,10.72,10.72,0,0,0-2.25,4,16.94,16.94,0,0,0-.81,5.14V90.85h-14V44.23h11.29l.81,3.54c1-.64,2.1-1.29,3.23-1.93a27.12,27.12,0,0,1,3.71-1.61,29.63,29.63,0,0,1,4-1.12,17.78,17.78,0,0,1,4.2-.48,25.59,25.59,0,0,1,9.68,1.6,16.49,16.49,0,0,1,6.61,4.67A20.74,20.74,0,0,1,322,56.13a30.57,30.57,0,0,1,1.29,9.64V90.85Z"/><path class="cls-1" d="M327.84,67.54a27.61,27.61,0,0,1,1.78-9.64,23.4,23.4,0,0,1,5-7.88,22.7,22.7,0,0,1,7.91-5.3A27,27,0,0,1,353,42.79a23,23,0,0,1,8.39,1.44,29.44,29.44,0,0,1,6.3,3.54l.64-3.54h11.94V90.85H368.34l-.64-3.54a23.89,23.89,0,0,1-6.3,3.54,22.16,22.16,0,0,1-8.23,1.44,26.34,26.34,0,0,1-10.32-1.92,22.86,22.86,0,0,1-7.91-5.31,21.22,21.22,0,0,1-5-7.87A22.17,22.17,0,0,1,327.84,67.54Zm14,0a14.06,14.06,0,0,0,1,5.31,11.76,11.76,0,0,0,2.74,4,9.72,9.72,0,0,0,4,2.58,12.68,12.68,0,0,0,9.68,0,13.27,13.27,0,0,0,4-2.58,11.76,11.76,0,0,0,2.74-4,15,15,0,0,0,0-10.61,11.71,11.71,0,0,0-2.74-4,11.42,11.42,0,0,0-4-2.57,12.56,12.56,0,0,0-9.68,0,13.12,13.12,0,0,0-4,2.57,11.35,11.35,0,0,0-2.58,4A11.53,11.53,0,0,0,341.88,67.54Z"/><path class="cls-1" d="M441.59,67.54a27.67,27.67,0,0,1-1.78,9.65,21.22,21.22,0,0,1-5,7.87,22.25,22.25,0,0,1-7.74,5.31,27,27,0,0,1-10.33,1.92,22.22,22.22,0,0,1-7.58-1.12,19.84,19.84,0,0,1-5.81-3v18.64h-14V44.07h11.3l1,4a23,23,0,0,1,2.9-2.09A25.54,25.54,0,0,1,408,44.23a16.67,16.67,0,0,1,4-1.12,20.67,20.67,0,0,1,4.52-.48,26.24,26.24,0,0,1,10.33,1.93,24.34,24.34,0,0,1,7.9,5.3,21.17,21.17,0,0,1,5,7.88A29.21,29.21,0,0,1,441.59,67.54Zm-14,0a14,14,0,0,0-1-5.3,11.71,11.71,0,0,0-2.74-4,9.6,9.6,0,0,0-4-2.57,12.56,12.56,0,0,0-9.68,0,12.18,12.18,0,0,0-3.87,2.57,11.87,11.87,0,0,0-2.75,4,15,15,0,0,0,0,10.61,11.93,11.93,0,0,0,2.75,4,11.45,11.45,0,0,0,4,2.58,12.68,12.68,0,0,0,9.68,0,11,11,0,0,0,3.87-2.58,11.4,11.4,0,0,0,2.58-4A11.6,11.6,0,0,0,427.55,67.54Z"/><path class="cls-1" d="M500,67.54a27.66,27.66,0,0,1-1.77,9.65,21.22,21.22,0,0,1-5,7.87,22.19,22.19,0,0,1-7.75,5.31,26.9,26.9,0,0,1-10.32,1.92,22.25,22.25,0,0,1-7.59-1.12,19.91,19.91,0,0,1-5.8-3v18.64h-14V44.07H459l1,4A23.92,23.92,0,0,1,462.89,46a25.42,25.42,0,0,1,3.54-1.77,16.88,16.88,0,0,1,4-1.12,20.54,20.54,0,0,1,4.52-.48,26.16,26.16,0,0,1,10.32,1.93,24.28,24.28,0,0,1,7.91,5.3,21.17,21.17,0,0,1,5,7.88A29.2,29.2,0,0,1,500,67.54Zm-14,0a14,14,0,0,0-1-5.3,11.85,11.85,0,0,0-2.74-4,9.57,9.57,0,0,0-4-2.57,12.56,12.56,0,0,0-9.68,0,12.4,12.4,0,0,0-3.87,2.57,11.71,11.71,0,0,0-2.74,4,15,15,0,0,0,0,10.61,11.76,11.76,0,0,0,2.74,4,11.63,11.63,0,0,0,4,2.58,12.68,12.68,0,0,0,9.68,0,10.91,10.91,0,0,0,3.88-2.58,11.54,11.54,0,0,0,2.58-4A11.73,11.73,0,0,0,486,67.54Z"/><path class="cls-1" d="M507.9,29h-3.55v9h-1V29h-3.55V28h7.91v1Z"/><path class="cls-1" d="M520,28.16V38h-1V30.09l-3.87,6.59h-.48l-3.88-6.59V38h-1V28.16h.8L515,35.39l4.19-7.23Z"/><path class="cls-2" d="M130,57.57h0a.34.34,0,0,1,0-.1s0,.07,0,.1Z"/><path class="cls-2" d="M130,57.47a.34.34,0,0,0,0,.1h0s0-.06,0-.1Z"/><path class="cls-2" d="M1.85,48.14h0Z"/><path class="cls-3" d="M64.91,28.7c-70.34,27.39-51.53-2.4-48-7.39h0A65.62,65.62,0,0,1,38.73,5.54,64.34,64.34,0,0,1,64.92,0V28.7"/><path class="cls-2" d="M130,57.47a.34.34,0,0,0,0,.1h0s0-.06,0-.1ZM1.85,48.14h0Z"/><path class="cls-1" d="M129.73,55.78c-1.66-8.28-8.37-11.53-16.91-12.07h0a56.22,56.22,0,0,0-10.29.44c-17.8,2.26-37.65,11.11-37.65,11.11C48.6,61.75,36.41,65.1,27.31,66.38a58.21,58.21,0,0,1-8.13.62c-4.89,0-8.5-.81-11.14-2.09C-.85,60.6,1.09,51,1.71,48.65c.05-.22.1-.37.12-.45l0-.05h0a67.4,67.4,0,0,1,15-26.83c-3.51,5-22.32,34.78,48,7.39,0,0,40.31-17.08,50.06-5.08h0A67.68,67.68,0,0,1,129.73,55.78Z"/><path class="cls-2" d="M128,85.86h0Z"/><path class="cls-3" d="M64.92,134a64.34,64.34,0,0,0,26.19-5.54A65.52,65.52,0,0,0,113,112.7a0,0,0,0,0,0,0c3.5-5,22.31-34.78-48-7.39Z"/><path class="cls-2" d="M128,85.86Z"/><path class="cls-1" d="M128.13,85.35c0,.22-.1.37-.12.45l0,0h0a67.5,67.5,0,0,1-15,26.83c3.5-5,22.31-34.78-48-7.39,0,0-40.31,17.08-50.06,5.08h0A67.57,67.57,0,0,1,.12,78.22C1.77,86.5,8.49,89.75,17,90.29a56.18,56.18,0,0,0,10.29-.44C45.11,87.59,65,78.74,65,78.74c16.28-6.49,28.47-9.85,37.57-11.12a58.21,58.21,0,0,1,8.13-.62c4.89,0,8.5.81,11.14,2.09C130.69,73.4,128.75,83,128.13,85.35Z"/><path class="cls-3" d="M121.8,69.09c-2.64-1.28-6.25-2.09-11.14-2.09a58.21,58.21,0,0,0-8.13.62C93.43,68.89,81.24,72.25,65,78.74c0,0-19.85,8.85-37.65,11.11A56.18,56.18,0,0,1,17,90.29C8.49,89.75,1.77,86.5.12,78.22c0,0-1.7-7.32,7.92-13.31C10.68,66.19,14.29,67,19.18,67a58.21,58.21,0,0,0,8.13-.62c9.1-1.28,21.29-4.63,37.57-11.12,0,0,19.85-8.85,37.65-11.11a56.22,56.22,0,0,1,10.29-.44h0c8.54.54,15.25,3.79,16.91,12.07C129.72,55.78,131.42,63.1,121.8,69.09Z"/></svg>
